icons/elo.svg

<?xml version="1.0" encoding="UTF-8"?>
<svg width="256px" height="256px" viewBox="0 0 256 256" version="1.1" xmlns="http://www.w3.org/2000/svg" xmlns:xlink="http://www.w3.org/1999/xlink" preserveAspectRatio="xMidYMid">
	<g fill-rule="evenodd">
		<path d="M128,0 C198.692254,0 256,57.307746 256,128 C256,198.692988 198.692254,256 128,256 C57.307746,256 0,198.692988 0,128 C0,57.307746 57.307746,0 128,0" fill="#0E0E11"></path>
		<path d="M90.021043,118.791335 L50.759152,135.710074 C50.6982695,135.033765 50.664527,134.349387 50.664527,133.65694 C50.664527,121.237639 60.732149,111.170017 73.15145,111.170017 C79.870533,111.170017 85.9008365,114.118785 90.021043,118.791335 Z M73.15145,94.353238 C91.6780745,94.353238 107.207518,107.17231 111.361467,124.424802 L95.520275,131.351473 L95.5166075,131.318464 L79.3101205,138.438785 L40.432596,155.437478 C36.2735129,149.202521 33.8477479,141.713238 33.8477479,133.65694 C33.8477479,111.949753 51.4442635,94.353238 73.15145,94.353238 Z M100.615335,161.772195 C86.5426705,175.12894 67.9258225,176.439748 51.5674955,166.508562 L60.8099025,152.456435 C70.1183265,158.020218 79.469295,157.117983 88.8635415,149.742395 L100.615335,161.772195 Z M116.618636,152.043462 L116.51961,77.717639 L130.601078,77.717639 L130.601078,150.036539 C130.601078,150.730453 130.6869,151.341478 131.597204,151.695037 L143.84706,156.459278 L138.328023,170.809215 L123.978086,164.737834 C118.536802,162.435301 116.628172,159.099232 116.618636,152.043462 Z" fill="#FFFFFF"></path>
		<path d="M169.639977,150.793536 C164.361536,146.689467 160.963118,140.284332 160.963118,133.080389 C160.963118,126.675988 163.651484,120.903152 167.955805,116.815954 L158.860837,102.075782 C149.718189,109.319335 143.84706,120.510716 143.84706,133.080389 C143.84706,146.628584 150.662969,158.581364 161.050407,165.707553 L169.639977,150.793536" fill="#2091C3"></path>
		<path d="M175.80525,111.968825 C178.175266,111.11647 180.730132,110.649215 183.394293,110.649215 C192.998326,110.649215 201.188126,116.687588 204.387026,125.172997 L221.814831,123.716951 C217.608069,106.396974 202.008207,93.533891 183.394293,93.533891 C178.134922,93.533891 173.119817,94.5696275 168.529421,96.433513 L175.80525,111.968825" fill="#FAEC32"></path>
		<path d="M205.797593,134.167473 C205.229845,146.050568 195.41749,155.511565 183.394292,155.511565 C181.509134,155.511565 179.680458,155.27537 177.931736,154.838189 L171.095289,170.666911 C174.967564,171.932241 179.098773,172.626889 183.394292,172.626889 C204.689971,172.626889 222.045157,155.791771 222.89898,134.70588 L205.797593,134.167473" fill="#D0352A"></path>
	</g>
</svg>

<svg xmlns="http://www.w3.org/2000/svg" viewBox="0 0 256 256">
  <g fill-rule="evenodd">
    <path fill="#0e0e11" d="M128 0c70.692 0 128 57.308 128 128 0 70.693-57.308 128-128 128C57.308 256 0 198.693 0 128 0 57.308 57.308 0 128 0"/>
    <path fill="#fff" d="m90.021 118.791-39.262 16.92c-.06-.677-.094-1.362-.094-2.054 0-12.42 10.067-22.487 22.486-22.487 6.72 0 12.75 2.949 16.87 7.621zm-16.87-24.438c18.527 0 34.057 12.82 38.21 30.072l-15.84 6.926-.004-.033-16.207 7.12-38.877 17a39.116 39.116 0 0 1-6.585-21.781c0-21.707 17.596-39.304 39.303-39.304zm27.464 67.42c-14.072 13.356-32.69 14.667-49.048 4.736l9.243-14.053c9.308 5.564 18.66 4.662 28.054-2.714zm16.004-9.73-.1-74.325h14.082v72.319c0 .693.086 1.304.996 1.658l12.25 4.764-5.519 14.35-14.35-6.071c-5.441-2.303-7.35-5.639-7.36-12.695z"/>
    <path fill="#2091c3" d="M169.64 150.794c-5.278-4.105-8.677-10.51-8.677-17.714 0-6.404 2.688-12.177 6.993-16.264l-9.095-14.74c-9.143 7.243-15.014 18.435-15.014 31.004 0 13.549 6.816 25.501 17.203 32.628l8.59-14.914"/>
    <path fill="#faec32" d="M175.805 111.969a22.382 22.382 0 0 1 7.59-1.32c9.603 0 17.793 6.039 20.992 14.524l17.428-1.456c-4.207-17.32-19.807-30.183-38.42-30.183a39.418 39.418 0 0 0-14.866 2.9l7.276 15.535"/>
    <path fill="#d0352a" d="M205.798 134.167c-.568 11.884-10.38 21.345-22.404 21.345-1.885 0-3.714-.237-5.462-.674l-6.837 15.829a39.522 39.522 0 0 0 12.3 1.96c21.295 0 38.65-16.835 39.504-37.921l-17.101-.539"/>
  </g>
</svg>
